X: 194
T: The Maple Leaf
C:Darach de Brun
M:C|
R:reel
K:Em
"Em"E3F GE~E2|"G"B2AB AGED|"Em"E3F G2GA|"G"B2dB "D"AGFD|
"Em"E3F GE~E2|"G"B2AB AGED|"Em"Beed "D"BAGA|"G"B2GB "D" AGED:|
|:"Em"Beed efg2|Beef edBA|Beed efg2|"A7"a2eg "D"fedc|
"Em"Beed efg2|Beef edB2|"A7"a2eg "D"fedc|"G"B2GB "D"AGED:|


